svg/u1f6ae.svg

<svg viewBox="0 0 128 128" xmlns="http://www.w3.org/2000/svg">
  <g>
    <path d="M116,4H12c-4.42,0-8,3.58-8,8v104c0,4.42,3.58,8,8,8h104c4.42,0,8-3.58,8-8V12 C124,7.58,120.42,4,116,4z" fill="#194FA5"/>
    <path d="M109.7,4H11.5C7.37,4.03,4.03,7.37,4,11.5v97.9c-0.01,4.14,3.34,7.49,7.48,7.5c0.01,0,0.01,0,0.02,0 h98.1c4.14,0.01,7.49-3.34,7.5-7.48c0-0.01,0-0.01,0-0.02V11.5c0.09-4.05-3.13-7.41-7.18-7.5C109.85,4,109.77,4,109.7,4z" fill="#2262DD"/>
    <path d="M39.7,12.9c0-2.3-1.6-3-10.8-2.7c-7.7,0.3-11.5,1.2-13.8,4c-1.9,2.3-2.3,5.6-2.6,8.4 c-0.2,2.2-2.2,15.9,3.5,12.2c0.68-0.45,1.23-1.07,1.6-1.8c1.2-2.1,1.9-4.5,3.3-6.6C26.2,17.8,39.7,15.9,39.7,12.9z" fill="#68ABE6"/>
    <path d="M43,70h-2c-1.1,0-2-0.9-2-2v-2c0-1.1,0.9-2,2-2h2c1.1,0,2,0.9,2,2v2C45,69.1,44.1,70,43,70z" fill="#FFFFFF"/>
    <path d="M33,82h-2c-1.1,0-2-0.9-2-2v-2c0-1.1,0.9-2,2-2h2c1.1,0,2,0.9,2,2v2C35,81.1,34.1,82,33,82z" fill="#FFFFFF"/>
    <path d="M39,94h-2c-1.1,0-2-0.9-2-2v-2c0-1.1,0.9-2,2-2h2c1.1,0,2,0.9,2,2v2C41,93.1,40.1,94,39,94z" fill="#FFFFFF"/>
    <circle cx="83" cy="26" r="10" fill="#FFFFFF"/>
    <path d="M108.8,71.3l-9.5-26.8C97.1,40,92.1,38,85,38c-5.7,0-10.6,1.8-13,4.5L61.8,52 c-0.69,0.61-1.58,0.97-2.5,1H46.8c-1.89-0.03-3.51,1.34-3.8,3.2c-0.2,1.99,1.25,3.78,3.24,3.98c0.12,0.01,0.24,0.02,0.36,0.02h16.3 c0.98,0,1.92-0.4,2.6-1.1l6.1-6.3c0.17-0.19,0.46-0.2,0.65-0.03c0.09,0.08,0.15,0.2,0.15,0.33v54.1c-0.07,2.4,1.72,4.45,4.1,4.7 c2.42,0.27,4.6-1.47,4.87-3.89c0.02-0.2,0.03-0.41,0.03-0.61V74.7c0-0.99,0.81-1.8,1.8-1.8c0.99,0,1.8,0.81,1.8,1.8v32.6 c-0.07,2.4,1.72,4.45,4.1,4.7c2.42,0.27,4.6-1.47,4.87-3.89c0.02-0.2,0.03-0.41,0.03-0.61V53.1c0.02-0.26,0.25-0.47,0.51-0.45 c0.16,0.01,0.31,0.1,0.39,0.25l7.1,21c0.72,1.93,2.87,2.91,4.8,2.2C108.59,75.24,109.45,73.18,108.8,71.3z" fill="#FFFFFF"/>
    <path d="M44.3,112H26.7c-3.07,0.01-5.73-2.11-6.4-5.1L13.1,74c-0.31-1.35,0.53-2.69,1.88-3 c0.01,0,0.01,0,0.02,0c1.35-0.29,2.69,0.55,3,1.9l7.3,32.9c0.17,0.69,0.79,1.18,1.5,1.2h17.6c0.71-0.02,1.33-0.51,1.5-1.2L53,73 c0.31-1.35,1.65-2.19,3-1.9c1.33,0.27,2.19,1.57,1.92,2.9c-0.01,0.03-0.01,0.07-0.02,0.1L50.6,107 C49.96,109.95,47.32,112.05,44.3,112z" fill="#FFFFFF"/>
  </g>
</svg>

<svg viewBox="0 0 128 128" xmlns="http://www.w3.org/2000/svg">
  <defs/>
  <path d="M116,4 L12,4 C7.58,4 4,7.58 4,12 L4,116 C4,120.42 7.58,124 12,124 L116,124 C120.42,124 124,120.42 124,116 L124,12 C124,7.58 120.42,4 116,4 Z" fill="#194FA5"/>
  <path d="M109.7,4 L11.5,4 C7.37,4.03 4.03,7.37 4,11.5 L4,109.4 C3.99,113.54 7.34,116.89 11.48,116.9 C11.49,116.9 11.49,116.9 11.5,116.9 L109.6,116.9 C113.74,116.91 117.09,113.56 117.1,109.42 C117.1,109.41 117.1,109.41 117.1,109.4 L117.1,11.5 C117.19,7.45 113.97,4.09 109.92,4 C109.85,4 109.77,4 109.7,4 Z" fill="#2262DD"/>
  <path d="M39.7,12.9 C39.7,10.6 38.1,9.9 28.9,10.2 C21.2,10.5 17.4,11.4 15.1,14.2 C13.2,16.5 12.8,19.8 12.5,22.6 C12.3,24.8 10.3,38.5 16,34.8 C16.68,34.35 17.23,33.73 17.6,33 C18.8,30.9 19.5,28.5 20.9,26.4 C26.2,17.8 39.7,15.9 39.7,12.9 Z" fill="#68ABE6"/>
  <path d="M43,70 L41,70 C39.9,70 39,69.1 39,68 L39,66 C39,64.9 39.9,64 41,64 L43,64 C44.1,64 45,64.9 45,66 L45,68 C45,69.1 44.1,70 43,70 Z" fill="#FFFFFF"/>
  <path d="M33,82 L31,82 C29.9,82 29,81.1 29,80 L29,78 C29,76.9 29.9,76 31,76 L33,76 C34.1,76 35,76.9 35,78 L35,80 C35,81.1 34.1,82 33,82 Z" fill="#FFFFFF"/>
  <path d="M39,94 L37,94 C35.9,94 35,93.1 35,92 L35,90 C35,88.9 35.9,88 37,88 L39,88 C40.1,88 41,88.9 41,90 L41,92 C41,93.1 40.1,94 39,94 Z" fill="#FFFFFF"/>
  <path d="M93,26 A10 10 0 1 1 73,26 A10 10 0 1 1 93,26 Z" fill="#FFFFFF"/>
  <path d="M108.8,71.3 L99.3,44.5 C97.1,40 92.1,38 85,38 C79.3,38 74.4,39.8 72,42.5 L61.8,52 C61.11,52.61 60.22,52.97 59.3,53 L46.8,53 C44.91,52.97 43.29,54.34 43,56.2 C42.8,58.19 44.25,59.98 46.24,60.18 C46.36,60.19 46.48,60.2 46.6,60.2 L62.9,60.2 C63.88,60.2 64.82,59.8 65.5,59.1 L71.6,52.8 C71.77,52.61 72.06,52.6 72.25,52.77 C72.34,52.85 72.4,52.97 72.4,53.1 L72.4,107.2 C72.33,109.6 74.12,111.65 76.5,111.9 C78.92,112.17 81.1,110.43 81.37,108.01 C81.39,107.81 81.4,107.6 81.4,107.4 L81.4,74.7 C81.4,73.71 82.21,72.9 83.2,72.9 C84.19,72.9 85,73.71 85,74.7 L85,107.3 C84.93,109.7 86.72,111.75 89.1,112 C91.52,112.27 93.7,110.53 93.97,108.11 C93.99,107.91 94,107.7 94,107.5 L94,53.1 C94.02,52.84 94.25,52.63 94.51,52.65 C94.67,52.66 94.82,52.75 94.9,52.9 L102,73.9 C102.72,75.83 104.87,76.81 106.8,76.1 C108.59,75.24 109.45,73.18 108.8,71.3 Z" fill="#FFFFFF"/>
  <path d="M44.3,112 L26.7,112 C23.63,112.01 20.97,109.89 20.3,106.9 L13.1,74 C12.79,72.65 13.63,71.31 14.98,71 C14.99,71 14.99,71 15,71 C16.35,70.71 17.69,71.55 18,72.9 L25.3,105.8 C25.47,106.49 26.09,106.98 26.8,107 L44.4,107 C45.11,106.98 45.73,106.49 45.9,105.8 L53,73 C53.31,71.65 54.65,70.81 56,71.1 C57.33,71.37 58.19,72.67 57.92,74 C57.91,74.03 57.91,74.07 57.9,74.1 L50.6,107 C49.96,109.95 47.32,112.05 44.3,112 Z" fill="#FFFFFF"/>
</svg>
